X: 5089
T: Bridge Mills
R: reel
M: 4/4
K: Dminor
|:"Dm" DEFG A2 de|"Dm" fedc "Am" AdcA|"Am" G2 AG "Dm" FDDd|"Am" cded cAGE|
"Dm" D2 (3EFG A3 B|"Am" cBcd e3 f|"Dm" dcAG FDDF|"Am" ECGE "Dm" FD D2:|
|:"Dm" FGAd "Am" cdeg|"Dm" f2 (3gfe "Am" fdcA|"Am" GAcd e3 g|"Dm" fd "Am" (3edc dcAG|
"Dm" F2 "Am" EF "Dm" DAAG|"Am" Addc "Dm" defg|"A" a3 g "Dm" fd "Am" (3edc|"Am" A2 AG "Dm" FD D2:|

